Themes/OneUI/assets/svg/contacts-squircle.svg

<?xml version="1.0" encoding="UTF-8" standalone="no"?>
<svg
   width="28.000013"
   height="28.000021"
   viewBox="0 0 28.000013 28.000021"
   fill="none"
   version="1.1"
   id="svg353"
   sodipodi:docname="contacts-squircle.svg"
   xmlns:inkscape="http://www.inkscape.org/namespaces/inkscape"
   xmlns:sodipodi="http://sodipodi.sourceforge.net/DTD/sodipodi-0.dtd"
   xmlns="http://www.w3.org/2000/svg"
   xmlns:svg="http://www.w3.org/2000/svg">
  <sodipodi:namedview
     id="namedview355"
     pagecolor="#ffffff"
     bordercolor="#666666"
     borderopacity="1.0"
     inkscape:showpageshadow="2"
     inkscape:pageopacity="0.0"
     inkscape:pagecheckerboard="0"
     inkscape:deskcolor="#d1d1d1" />
  <g
     clip-path="url(#clip0_1_8010)"
     id="g346">
    <path
       d="M 24.856,3.14401 C 23.13,1.52161 20.7739,0.601214 18.1738,0.256914 15.6907,-0.072186 14,0.00881404 14,0.00881404 c 0,0 -1.691,-0.08100004 -4.1742,0.24809996 -2.6,0.3443 -4.956,1.264696 -6.6815,2.887096 -1.6228,1.7258 -2.543102,4.0819 -2.887602,6.6819 -0.3290998,2.48299 -0.24779977,4.17399 -0.24779977,4.17399 0,0 -0.08130003,1.6908 0.24779977,4.174 0.3445,2.5998 1.264802,4.9561 2.887402,6.6819 1.7257,1.6226 4.0817,2.5428 6.6817,2.8875 C 12.309,28.0722 14,27.9912 14,27.9912 c 0,0 1.6907,0.081 4.1738,-0.2479 2.6001,-0.3447 4.9562,-1.2649 6.6818,-2.8875 1.623,-1.7258 2.5432,-4.0821 2.8877,-6.6819 0.3289,-2.4832 0.2479,-4.174 0.2479,-4.174 0,0 0.081,-1.691 -0.2479,-4.17399 -0.3445,-2.6 -1.2647,-4.9561 -2.8873,-6.6819 z"
       fill="#4772e6"
       id="path342" />
    <path
       d="m 14,19.3161 c -1.5941,0 -3.014,-0.7389 -3.938,-1.892 0.4033,-1.804 2.0121,-3.1524 3.938,-3.1524 1.925,0 3.5337,1.3484 3.9371,3.1524 -0.9249,1.1531 -2.3439,1.892 -3.9371,1.892 z M 13.9862,9.26207 c 1.0295,0 1.8645,0.83503 1.8645,1.86453 0,1.0294 -0.835,1.8645 -1.8645,1.8645 -1.0303,0 -1.8645,-0.8351 -1.8645,-1.8645 0,-1.0295 0.8342,-1.86453 1.8645,-1.86453 z M 14,6.32227 c -4.2405,0 -7.6771,3.4366 -7.6771,7.67713 0,4.2396 3.4366,7.6771 7.6771,7.6771 4.2405,0 7.6771,-3.4375 7.6771,-7.6771 0,-4.24053 -3.4366,-7.67713 -7.6771,-7.67713 z"
       fill="#ffffff"
       id="path344" />
  </g>
  <defs
     id="defs351">
    <clipPath
       id="clip0_1_8010">
      <rect
         width="28"
         height="28"
         fill="#ffffff"
         id="rect348"
         x="0"
         y="0" />
    </clipPath>
  </defs>
</svg>

<svg width="28" height="28" viewBox="0 0 28 28" fill="none" xmlns="http://www.w3.org/2000/svg">
<g clip-path="url(#clip0_1_8010)">
<path d="M24.856 3.14401C23.13 1.52161 20.7739 0.601214 18.1738 0.256914C15.6907 -0.072186 14 0.00881404 14 0.00881404C14 0.00881404 12.309 -0.072186 9.8258 0.256914C7.2258 0.601214 4.8698 1.52161 3.1443 3.14401C1.5215 4.86981 0.601198 7.22591 0.256698 9.82591C-0.0724018 12.3089 0.00889823 13.9999 0.00889823 13.9999C0.00889823 13.9999 -0.0724018 15.6907 0.256698 18.1739C0.601198 20.7737 1.5215 23.13 3.1441 24.8558C4.8698 26.4784 7.2258 27.3986 9.8258 27.7433C12.309 28.0722 14 27.9912 14 27.9912C14 27.9912 15.6907 28.0722 18.1738 27.7433C20.7739 27.3986 23.13 26.4784 24.8556 24.8558C26.4786 23.13 27.3988 20.7737 27.7433 18.1739C28.0722 15.6907 27.9912 13.9999 27.9912 13.9999C27.9912 13.9999 28.0722 12.3089 27.7433 9.82591C27.3988 7.22591 26.4786 4.86981 24.856 3.14401Z" fill="#4772E6"/>
<path d="M14 19.3161C12.4059 19.3161 10.986 18.5772 10.062 17.4241C10.4653 15.6201 12.0741 14.2717 14 14.2717C15.925 14.2717 17.5337 15.6201 17.9371 17.4241C17.0122 18.5772 15.5932 19.3161 14 19.3161ZM13.9862 9.26207C15.0157 9.26207 15.8507 10.0971 15.8507 11.1266C15.8507 12.156 15.0157 12.9911 13.9862 12.9911C12.9559 12.9911 12.1217 12.156 12.1217 11.1266C12.1217 10.0971 12.9559 9.26207 13.9862 9.26207ZM14 6.32227C9.7595 6.32227 6.3229 9.75887 6.3229 13.9994C6.3229 18.239 9.7595 21.6765 14 21.6765C18.2405 21.6765 21.6771 18.239 21.6771 13.9994C21.6771 9.75887 18.2405 6.32227 14 6.32227Z" fill="white"/>
</g>
<defs>
<clipPath id="clip0_1_8010">
<rect width="28" height="28" fill="white"/>
</clipPath>
</defs>
</svg>
